X: 26575
T: Mick Duggan's
R: polka
M: 2/4
K: Dmajor
|:e/|f/g/f/e/ d/e/f/a/|ba a>f|eA ce|gf f>e|
f/g/f/e/ d/e/f/a/|ba a>f|eA ce|ed d3/2:|
|:b/|ad fe/d/|cB B/A/B|ef ga|ba aa/b/|
ad fe/d/|cB B>d|ef gc|ed d3/2:|

